src/static/logos/bigpanda.svg

<?xml version="1.0" encoding="UTF-8" standalone="no"?>
<svg width="256px" height="222px" viewBox="0 0 256 222" version="1.1" xmlns="http://www.w3.org/2000/svg" xmlns:xlink="http://www.w3.org/1999/xlink" preserveAspectRatio="xMidYMid">
	<g>
		<path d="M181.243333,159.987112 C160.4538,157.528209 150.062506,144.49047 148.187072,141.899593 C144.061117,136.20383 139.39337,126.027864 135.392444,116.831291 C134.183831,114.05287 129.884225,113.538863 128.307471,113.448564 L127.717057,113.434672 C126.980775,113.441618 121.437826,113.580539 120.020831,116.831291 C116.012959,126.020918 111.359105,136.189938 107.226204,141.899593 C105.35077,144.49047 94.9525299,157.535155 74.1699426,159.987112 C70.5510495,160.424713 66.7237749,160.633095 62.7575792,160.633095 C54.0819604,160.633095 45.5035862,159.618971 38.5853185,157.882458 L45.6702915,186.4863 L104.600596,210.769698 L126.51539,213.416143 L148.277371,210.769698 L207.207675,186.4863 L214.139835,158.500657 C207.742521,159.841245 200.226893,160.633095 192.634858,160.633095 C188.689501,160.633095 184.848334,160.424713 181.243333,159.987112 L181.243333,159.987112 Z M153.271582,196.940108 L99.3354887,196.940108 L99.3354887,191.244346 L123.452181,191.244346 L123.452181,179.185999 C121.757344,178.922049 120.0764,178.637261 118.388509,178.310797 C116.054636,177.866249 113.734654,177.380026 111.449403,176.740989 C109.386426,176.178359 107.219258,175.546268 105.364662,174.441846 C102.009719,172.420545 99.4744098,168.52381 101.530441,164.682643 C102.509834,162.862777 104.253293,161.174887 106.198188,160.431659 C108.400086,159.584241 110.935395,159.473104 113.276215,159.389751 C111.949519,159.438374 114.172256,159.389751 113.512381,159.382805 L113.394298,159.382805 L113.512381,159.382805 C115.950445,159.382805 118.367671,159.44532 120.812681,159.605079 C122.986796,159.750946 125.216478,160.23717 127.3767,159.987112 C132.086124,159.452266 136.920576,159.132747 141.657783,159.542564 C143.790221,159.730108 146.144933,159.987112 147.930068,161.279077 C149.590174,162.487691 151.07663,164.120013 151.60453,166.14826 C152.639491,170.114456 149.277602,173.566643 145.950443,175.094775 C141.782812,177.011885 136.976144,177.838465 132.488995,178.623369 C131.377626,178.817859 130.259312,179.005402 129.140998,179.185999 L129.140998,191.244346 L153.271582,191.244346 L153.271582,196.940108 Z M225.128489,94.6456013 C222.183363,93.7426145 218.314412,93.0480093 213.097927,92.6381923 C206.874265,92.1658607 198.726546,92.1172384 187.897651,92.6520844 C187.897651,92.6520844 170.845093,94.1454855 160.849725,97.6046194 C155.424858,99.4869995 148.66635,102.383503 147.075704,107.398553 C145.485058,112.413602 146.728401,123.464771 149.235926,129.375861 C151.743451,135.300843 158.244955,143.212396 163.711498,146.907696 C168.768224,150.339046 178.485751,154.569191 191.836062,154.485839 C200.07408,154.437216 208.756645,153.645366 215.959701,151.214248 C219.036802,150.179286 221.856899,148.845645 224.239395,147.136916 C226.55243,145.483755 228.413972,143.518023 229.921265,141.406423 C233.616565,136.224668 235.17248,130.06352 235.901816,124.812305 C236.922885,117.41476 238.07593,104.765999 233.734648,99.8690323 C231.97035,97.8755154 229.608693,96.0278656 225.128489,94.6456013 Z M91.7156697,146.914642 C97.1752666,143.219342 103.676771,135.300843 106.170404,129.382807 C108.684875,123.464771 109.935164,112.420548 108.337572,107.405499 C106.746926,102.390449 99.9953636,99.4869995 94.563551,97.6115654 C84.5751284,94.1524316 67.5156248,92.6590304 67.5156248,92.6590304 C55.1516524,92.0408318 46.2607059,92.200591 39.7592013,92.874358 C34.23709,93.4578264 30.4167614,94.4233276 27.6591788,95.6249946 C24.8112975,96.8474997 23.0678385,98.3200627 21.6855741,99.8829244 C17.3512377,104.779891 18.4903902,117.421706 19.5114599,124.826197 C20.0810361,128.910475 21.1507281,133.543492 23.3317884,137.836152 C25.1030317,141.32307 27.6175025,144.601607 31.1947192,147.150808 C32.8270414,148.324691 34.6885834,149.317976 36.6682082,150.17234 C44.3505416,153.430039 54.2486656,154.444162 63.5911055,154.499731 C76.9275252,154.569191 86.6519979,150.345992 91.7156697,146.914642 Z M47.5040492,84.1501168 C58.0064797,84.2334694 68.5783707,84.9697509 79.1224776,86.3797995 C84.9918915,87.1647033 90.8404672,88.1440967 96.6543127,89.3318715 C101.39152,90.3529412 105.184064,91.2976042 108.532061,92.1311305 C115.936553,93.9857263 120.826573,95.1943394 127.730949,95.2082315 C134.614486,95.1943394 139.490615,93.9718342 146.88816,92.1311305 C150.236157,91.2976042 154.028702,90.3529412 158.738125,89.3388176 C163.905987,88.2760716 169.087742,87.4078152 174.290335,86.6645876 C184.633006,85.1989706 195.010408,84.3584984 205.332241,84.1848471 C206.763128,84.1570629 208.207907,84.1292786 209.645739,84.1292786 C210.430643,84.1292786 211.215547,84.1362247 211.986559,84.1431707 L211.416983,79.8574567 L211.139141,78.9892002 L197.96248,39.5425713 L165.01041,33.089689 L126.529282,25.5740608 L126.529282,25.5601687 L126.501498,25.5601687 C126.501498,25.5601687 126.487606,25.5601687 126.452875,25.5671148 C126.418145,25.5601687 126.397307,25.5601687 126.397307,25.5601687 L126.369523,25.5601687 L126.369523,25.5810069 C124.924744,25.7407661 105.87867,29.470796 87.8119886,33.0341206 C70.9469745,36.3543334 54.9363247,39.5495173 54.9363247,39.5495173 L41.7596642,78.9961463 L41.46793,79.8644028 L40.9052998,84.1917931 C42.4889997,84.1570629 44.1143758,84.1362247 45.7744822,84.1362247 C46.3510046,84.1292786 46.9275269,84.1501168 47.5040492,84.1501168 Z" fill="#FFFFFF"></path>
		<path d="M252.919643,88.5122374 C252.787668,88.4705611 242.146316,85.6643561 224.114366,84.573826 L223.107188,74.8771375 L220.960858,68.4450934 L233.762432,54.7266408 C245.390123,42.2654236 244.70941,22.7470177 232.248192,11.1262728 L229.810128,8.84796778 C217.355857,-2.77277711 197.830505,-2.09206402 186.20976,10.3622071 L175.17943,22.1843875 L126.529282,12.0084214 L126.529282,11.9945293 L126.494552,11.9945293 C126.494552,11.9945293 126.473714,11.9945293 126.438983,12.0014754 C126.397307,11.9945293 126.376469,11.9945293 126.376469,11.9945293 L126.348685,11.9945293 L126.348685,12.0153675 C124.563549,12.216803 99.4535716,17.4958024 77.6151843,22.114927 L66.6543144,10.3691532 C55.0474616,-2.09206402 35.5221096,-2.76583105 23.0678385,8.85491383 L20.6297742,11.1332189 C8.17550313,22.7609098 7.49479004,42.2723697 19.1155349,54.7335869 L31.9240547,68.4520394 L29.7707786,74.8840835 L28.756655,84.7405312 C12.2736738,85.9421982 2.60476948,88.4775072 2.49363264,88.5191835 C0.791849921,88.998461 0.0902986751,90.7210819 0.152813143,92.2214291 L2.18800636,106.794246 L3.0632089,107.259632 C5.86246783,108.746087 6.57791118,110.989661 10.3774016,124.270513 L11.0511686,126.611332 C15.1910156,141.02439 18.6501494,147.345297 25.4920106,152.256156 L37.1405397,192.425174 L101.606848,218.778495 L126.536228,221.306858 L151.285011,218.778495 L218.314412,192.425174 L227.490147,153.860694 C227.594338,153.79818 227.705475,153.735665 227.809665,153.673151 C236.110197,148.505288 239.826335,142.434439 244.362107,126.611332 L245.04282,124.235783 C248.835364,110.982715 249.543862,108.746087 252.350067,107.259632 L253.225269,106.794246 L255.239624,92.4159186 L255.253516,92.2283752 C255.309085,90.7210819 254.61448,88.998461 252.919643,88.5122374 L252.919643,88.5122374 Z M41.460984,79.8574567 L41.7527182,78.9892002 L54.9293787,39.5425713 C54.9293787,39.5425713 70.9469745,36.3473874 87.8050425,33.0271746 C105.871724,29.4569039 124.917798,25.73382 126.362577,25.5740608 L126.362577,25.5601687 L126.390361,25.5601687 C126.390361,25.5601687 126.411199,25.5601687 126.445929,25.5671148 C126.48066,25.5601687 126.494552,25.5601687 126.494552,25.5601687 L126.522336,25.5601687 L126.522336,25.5810069 L165.003464,33.0966351 L197.955534,39.5495173 L211.132195,78.9961463 L211.410037,79.8644028 L211.979613,84.1501168 C211.208601,84.1431707 210.423697,84.1362247 209.638793,84.1362247 C208.200961,84.1362247 206.756182,84.1640089 205.325295,84.1917931 C195.010408,84.3654444 184.633006,85.2059167 174.283389,86.6715337 C169.080796,87.4078152 163.899041,88.2760716 158.731179,89.3457636 C154.021756,90.3598872 150.229211,91.3045503 146.881214,92.1380765 C139.490615,93.9857263 134.60754,95.2012854 127.724003,95.2151775 C120.819627,95.2012854 115.936553,93.9857263 108.525115,92.1380765 C105.177118,91.3045503 101.384574,90.3598872 96.6473666,89.3388176 C90.8265751,88.1510427 84.9779994,87.1716494 79.1155315,86.3867455 C68.5714247,84.976697 57.9995337,84.2334694 47.4971031,84.1570629 C46.9205808,84.1570629 46.3440585,84.1362247 45.7605901,84.1362247 C44.1004837,84.1362247 42.4681615,84.1570629 40.8914077,84.1917931 L41.460984,79.8574567 L41.460984,79.8574567 Z M36.6612621,150.158448 C34.6816373,149.304084 32.8200954,148.310799 31.1877732,147.136916 C27.6105564,144.587715 25.0960856,141.309178 23.3248424,137.82226 C21.1507281,133.5296 20.0740901,128.896583 19.5045138,124.812305 C18.4834442,117.41476 17.3373456,104.765999 21.6786281,99.8690323 C23.0608924,98.2992246 24.8043515,96.8266616 27.6522328,95.6111025 C30.4098154,94.4094355 34.2301439,93.4439343 39.7522552,92.8604659 C46.2607059,92.1797528 55.1447063,92.0269397 67.5086787,92.6451383 C67.5086787,92.6451383 84.5612362,94.1385395 94.556605,97.5976733 C99.9884176,99.4800534 106.746926,102.376557 108.330626,107.391607 C109.928218,112.406656 108.684875,123.457825 106.163458,129.368915 C103.669825,135.293897 97.1683205,143.20545 91.7087237,146.90075 C86.6450518,150.3321 76.9205791,154.562245 63.5772134,154.478893 C54.2486656,154.437216 44.3505416,153.416147 36.6612621,150.158448 L36.6612621,150.158448 Z M207.214621,186.493246 L148.284317,210.776644 L126.522336,213.423089 L104.607542,210.776644 L45.6772375,186.493246 L38.5922645,157.889404 C45.5105323,159.618971 54.0889064,160.640041 62.7645253,160.640041 C66.7237749,160.640041 70.5579955,160.431659 74.1768886,159.994058 C94.959476,157.535155 105.357716,144.497416 107.23315,141.906539 C111.366051,136.196884 116.019905,126.027864 120.027777,116.838237 C121.444772,113.587485 126.987721,113.448564 127.724003,113.441618 L128.314417,113.45551 C129.891171,113.552755 134.190777,114.059816 135.39939,116.838237 C139.400316,126.03481 144.068063,136.210776 148.194018,141.906539 C150.069452,144.497416 160.460746,157.542102 181.250279,159.994058 C184.862226,160.431659 188.696447,160.640041 192.655696,160.640041 C200.247731,160.640041 207.763359,159.855137 214.160673,158.507603 L207.214621,186.493246 L207.214621,186.493246 Z M235.901816,124.819251 C235.17248,130.070466 233.616565,136.231614 229.921265,141.413369 C228.407026,143.531915 226.55243,145.490701 224.239395,147.143862 C221.849953,148.852591 219.036802,150.186233 215.959701,151.221194 C208.756645,153.652312 200.07408,154.444162 191.836062,154.492785 C178.485751,154.576137 168.768224,150.345992 163.711498,146.914642 C158.244955,143.219342 151.743451,135.300843 149.235926,129.382807 C146.735347,123.464771 145.485058,112.420548 147.075704,107.405499 C148.66635,102.390449 155.424858,99.4869995 160.849725,97.6115654 C170.838147,94.1524316 187.897651,92.6590304 187.897651,92.6590304 C198.726546,92.1241844 206.867319,92.1728068 213.097927,92.6451383 C218.314412,93.0549554 222.190309,93.7495606 225.128489,94.6525473 C229.608693,96.0348117 231.963404,97.8824615 233.734648,99.8829244 C238.068984,104.772945 236.922885,117.41476 235.901816,124.819251 Z M129.147944,179.179053 C130.266258,178.998456 131.384572,178.810913 132.495941,178.616423 C136.98309,177.831519 141.789758,177.011885 145.957389,175.087829 C149.284548,173.559697 152.653383,170.107509 151.611476,166.141314 C151.083576,164.113067 149.597121,162.480744 147.937014,161.272131 C146.151879,159.980166 143.790221,159.723162 141.664729,159.535618 C136.927522,159.125801 132.09307,159.44532 127.383646,159.980166 C125.216478,160.230224 122.993742,159.750946 120.819627,159.598133 C118.374617,159.438374 115.957391,159.375859 113.519327,159.375859 C114.179202,159.382805 111.949519,159.431428 113.283161,159.382805 C110.942341,159.473104 108.413979,159.577295 106.205134,160.424713 C104.26024,161.167941 102.51678,162.862777 101.537387,164.675697 C99.4813558,168.52381 102.009719,172.413599 105.371608,174.4349 C107.226204,175.539322 109.393372,176.171413 111.456349,176.734043 C113.7416,177.37308 116.061582,177.852357 118.395455,178.303851 C120.0764,178.630315 121.757344,178.915103 123.459127,179.179053 L123.459127,191.244346 L99.3424348,191.244346 L99.3424348,196.933162 L153.278528,196.933162 L153.278528,191.244346 L129.147944,191.244346 L129.147944,179.179053 Z" fill="#454545"></path>
	</g>
</svg>

<svg width="256" height="222" xmlns="http://www.w3.org/2000/svg" preserveAspectRatio="xMidYMid"><path d="M181.243 159.987c-20.79-2.459-31.18-15.497-33.056-18.087-4.126-5.696-8.794-15.872-12.795-25.069-1.208-2.778-5.508-3.292-7.085-3.382l-.59-.014c-.736.007-6.28.146-7.696 3.396-4.008 9.19-8.662 19.359-12.795 25.069-1.875 2.59-12.273 15.635-33.056 18.087-3.619.438-7.446.646-11.412.646-8.676 0-17.254-1.014-24.173-2.75l7.085 28.603 58.93 24.284 21.915 2.646 21.762-2.646 58.93-24.284 6.933-27.985c-6.397 1.34-13.913 2.132-21.505 2.132-3.945 0-7.787-.208-11.392-.646zm-27.971 36.953H99.335v-5.696h24.117v-12.058a140.211 140.211 0 01-5.063-.875c-2.334-.445-4.654-.931-6.94-1.57-2.063-.563-4.23-1.195-6.084-2.3-3.355-2.02-5.89-5.917-3.835-9.758.98-1.82 2.723-3.508 4.668-4.251 2.202-.848 4.737-.959 7.078-1.042-1.326.048.896 0 .236-.007h-.118.118c2.438 0 4.856.062 7.3.222 2.175.146 4.404.632 6.565.382 4.71-.535 9.544-.854 14.28-.444 2.133.187 4.488.444 6.273 1.736 1.66 1.209 3.147 2.841 3.675 4.87 1.034 3.965-2.327 7.418-5.655 8.946-4.167 1.917-8.974 2.743-13.461 3.528-1.111.195-2.23.382-3.348.563v12.058h24.13v5.696zm71.856-102.294c-2.945-.903-6.814-1.598-12.03-2.008-6.224-.472-14.371-.52-25.2.014 0 0-17.053 1.493-27.048 4.953-5.425 1.882-12.184 4.779-13.774 9.794-1.59 5.015-.348 16.066 2.16 21.977 2.507 5.925 9.009 13.836 14.475 17.532 5.057 3.431 14.775 7.661 28.125 7.578 8.238-.049 16.92-.84 24.124-3.272 3.077-1.035 5.897-2.368 8.28-4.077 2.312-1.653 4.174-3.619 5.681-5.73 3.696-5.182 5.251-11.343 5.98-16.595 1.022-7.397 2.175-20.046-2.166-24.943-1.765-1.993-4.126-3.841-8.607-5.223zM91.716 146.915c5.46-3.696 11.96-11.614 14.454-17.532 2.515-5.918 3.765-16.962 2.168-21.978-1.591-5.015-8.343-7.918-13.774-9.793-9.989-3.46-27.048-4.953-27.048-4.953-12.364-.618-21.255-.458-27.757.215-5.522.584-9.342 1.55-12.1 2.751-2.848 1.222-4.591 2.695-5.973 4.258-4.335 4.897-3.196 17.539-2.175 24.943.57 4.084 1.64 8.717 3.82 13.01 1.772 3.487 4.287 6.766 7.864 9.315 1.632 1.174 3.494 2.167 5.473 3.021 7.683 3.258 17.58 4.272 26.923 4.328 13.337.07 23.061-4.154 28.125-7.585zM47.504 84.15c10.502.083 21.074.82 31.618 2.23 5.87.785 11.718 1.764 17.532 2.952 4.738 1.02 8.53 1.966 11.878 2.8 7.405 1.854 12.295 3.062 19.199 3.076 6.883-.014 11.76-1.236 19.157-3.077 3.348-.833 7.14-1.778 11.85-2.792 5.168-1.063 10.35-1.931 15.552-2.674 10.343-1.466 20.72-2.307 31.042-2.48 1.431-.028 2.876-.056 4.314-.056.785 0 1.57.007 2.34.014l-.569-4.286-.278-.868-13.177-39.446-32.952-6.453-38.48-7.516v-.014h-.029s-.013 0-.048.007c-.035-.007-.056-.007-.056-.007h-.027v.021c-1.445.16-20.491 3.89-38.558 7.453-16.865 3.32-32.876 6.516-32.876 6.516L41.76 78.996l-.292.868-.563 4.328a222 222 0 014.87-.056c.576-.007 1.153.014 1.729.014z" fill="#FFF"/><path d="M252.92 88.512c-.132-.041-10.774-2.848-28.806-3.938l-1.007-9.697-2.146-6.432 12.801-13.718c11.628-12.462 10.947-31.98-1.514-43.6l-2.438-2.279c-12.454-11.62-31.98-10.94-43.6 1.514l-11.03 11.822-48.65-10.176v-.013h-.035s-.021 0-.056.006c-.042-.006-.063-.006-.063-.006h-.027v.02c-1.785.202-26.895 5.48-48.734 10.1l-10.96-11.746C55.046-2.092 35.521-2.766 23.067 8.855l-2.438 2.278c-12.454 11.628-13.135 31.14-1.514 43.6l12.808 13.719-2.153 6.432-1.014 9.857c-16.483 1.201-26.152 3.737-26.263 3.778C.792 89 .09 90.721.153 92.221l2.035 14.573.875.466c2.8 1.486 3.515 3.73 7.314 17.01l.674 2.341c4.14 14.413 7.6 20.734 14.441 25.645l11.649 40.17 64.466 26.352 24.93 2.529 24.748-2.529 67.03-26.353 9.175-38.564c.104-.063.215-.125.32-.188 8.3-5.168 12.016-11.239 16.552-27.062l.68-2.375c3.793-13.253 4.502-15.49 7.308-16.976l.875-.466 2.015-14.378.014-.188c.055-1.507-.64-3.23-2.334-3.716zM41.46 79.857l.292-.868 13.176-39.446s16.018-3.196 32.876-6.516c18.067-3.57 37.113-7.293 38.558-7.453v-.014h.027s.021 0 .056.007c.035-.007.049-.007.049-.007h.027v.021l38.481 7.516 32.953 6.453 13.176 39.446.278.868.57 4.286c-.771-.007-1.556-.014-2.341-.014-1.438 0-2.883.028-4.314.056-10.315.173-20.692 1.014-31.042 2.48-5.202.736-10.384 1.604-15.552 2.674-4.71 1.014-8.502 1.959-11.85 2.792-7.39 1.848-12.273 3.063-19.157 3.077-6.904-.014-11.787-1.23-19.199-3.077-3.348-.833-7.14-1.778-11.878-2.8a260.74 260.74 0 00-17.531-2.951 252.542 252.542 0 00-31.619-2.23c-.576 0-1.153-.02-1.736-.02-1.66 0-3.293.02-4.87.055l.57-4.335zm-4.8 70.301c-1.98-.854-3.84-1.847-5.473-3.021-3.577-2.55-6.092-5.828-7.863-9.315-2.174-4.292-3.25-8.925-3.82-13.01-1.022-7.397-2.168-20.046 2.174-24.943 1.382-1.57 3.125-3.042 5.973-4.258 2.758-1.202 6.578-2.167 12.1-2.75 6.509-.681 15.393-.834 27.757-.216 0 0 17.052 1.494 27.048 4.953 5.431 1.882 12.19 4.779 13.774 9.794 1.597 5.015.354 16.066-2.168 21.977-2.493 5.925-8.995 13.836-14.454 17.532-5.064 3.431-14.788 7.661-28.132 7.578-9.328-.042-19.226-1.063-26.916-4.32zm170.554 36.335l-58.93 24.284-21.763 2.646-21.914-2.646-58.93-24.284-7.086-28.604c6.919 1.73 15.497 2.751 24.173 2.751 3.959 0 7.793-.208 11.412-.646 20.782-2.459 31.18-15.497 33.056-18.087 4.133-5.71 8.787-15.88 12.795-25.069 1.417-3.25 6.96-3.39 7.696-3.396l.59.014c1.577.097 5.877.604 7.085 3.382 4.001 9.197 8.67 19.373 12.795 25.069 1.875 2.59 12.267 15.635 33.056 18.087 3.612.438 7.446.646 11.406.646 7.592 0 15.107-.785 21.505-2.132l-6.946 27.985zm28.687-61.674c-.73 5.251-2.285 11.413-5.98 16.594-1.515 2.119-3.37 4.078-5.683 5.73-2.389 1.71-5.202 3.043-8.28 4.078-7.202 2.431-15.885 3.223-24.123 3.272-13.35.083-23.068-4.147-28.125-7.578-5.466-3.696-11.968-11.614-14.475-17.532-2.5-5.918-3.75-16.962-2.16-21.978 1.59-5.015 8.349-7.918 13.774-9.793 9.988-3.46 27.048-4.953 27.048-4.953 10.829-.535 18.97-.486 25.2-.014 5.216.41 9.092 1.105 12.03 2.008 4.48 1.382 6.835 3.23 8.607 5.23 4.334 4.89 3.188 17.532 2.167 24.936zm-106.754 54.36c1.118-.18 2.237-.368 3.348-.563 4.487-.784 9.294-1.604 13.461-3.528 3.328-1.528 6.696-4.98 5.654-8.947-.527-2.028-2.014-3.66-3.674-4.869-1.785-1.292-4.147-1.549-6.272-1.736-4.737-.41-9.572-.09-14.281.444-2.168.25-4.39-.23-6.564-.382a111.53 111.53 0 00-7.3-.222c.66.007-1.57.055-.237.007-2.34.09-4.869.194-7.078 1.042-1.945.743-3.688 2.438-4.668 4.25-2.056 3.849.473 7.739 3.835 9.76 1.854 1.104 4.021 1.736 6.084 2.299 2.286.64 4.606 1.118 6.94 1.57 1.68.326 3.361.611 5.063.875v12.065H99.342v5.69h53.937v-5.69h-24.131V179.18z" fill="#454545"/></svg>
